src/components/buttons/PlayButtonNew/img/restart.svg

<svg width="71" height="74" viewBox="0 0 71 74" fill="none" xmlns="http://www.w3.org/2000/svg">
<path d="M70.5031 32.4823C70.2631 30.9852 68.8488 29.9653 67.3443 30.2041C65.8398 30.443 64.8149 31.8503 65.0549 33.3475C65.0575 33.3639 65.0602 33.3801 65.0631 33.3964C67.8723 49.8524 56.7439 65.4587 40.2069 68.2542C23.67 71.0496 7.98701 59.9756 5.17781 43.5195C2.36861 27.0635 13.4973 11.4572 30.034 8.66173C40.2039 6.94264 50.5554 10.4776 57.5213 18.0487L45.301 22.1003C43.8553 22.579 43.0735 24.1331 43.5544 25.5717C43.5545 25.572 43.5547 25.5725 43.5549 25.5728C44.0359 27.0114 45.5976 27.7894 47.0432 27.3109C47.0437 27.3107 47.044 27.3105 47.0444 27.3105L63.5957 21.8205C64.7226 21.447 65.4827 20.3975 65.4826 19.2155V2.74511C65.4826 1.229 64.2475 0 62.724 0C61.2004 0 59.9654 1.229 59.9654 2.74511V12.7727C45.7591 -0.673129 23.2889 -0.112911 9.77694 14.0239C-3.735 28.1608 -3.17219 50.521 11.0343 63.967C25.2408 77.413 47.7108 76.8528 61.2229 62.7158C68.9278 54.6544 72.3664 43.4521 70.5031 32.4823Z" fill="white"/>
</svg>

<svg width="71" height="74" fill="none" xmlns="http://www.w3.org/2000/svg"><path d="M70.503 32.482a2.757 2.757 0 0 0-3.159-2.278 2.747 2.747 0 0 0-2.28 3.192c2.808 16.456-8.32 32.063-24.857 34.858C23.67 71.05 7.987 59.976 5.177 43.52 2.37 27.065 13.498 11.458 30.035 8.663c10.17-1.72 20.521 1.816 27.487 9.387L45.301 22.1a2.742 2.742 0 0 0-1.746 3.473 2.762 2.762 0 0 0 3.488 1.738h.001l16.552-5.49a2.747 2.747 0 0 0 1.887-2.606V2.745A2.752 2.752 0 0 0 62.724 0a2.752 2.752 0 0 0-2.759 2.745v10.028C45.76-.673 23.29-.113 9.777 14.023c-13.512 14.138-12.95 36.498 1.257 49.944 14.207 13.446 36.677 12.886 50.189-1.251a35.213 35.213 0 0 0 9.28-30.234z" fill="#fff"/></svg>
